X:1
T:Title
%%score { 1 | 2 }
L:1/8
M:3/4
K:G
V:1 treble nm="Grand Piano"
V:2 treble 
V:1
 z2 z2[Q:1/4=100] G2 | Bd d2 e2 | dB G2 B2 | [CFA]3 [B,G] [DGB][CFA] |[M:2/4] G4 |[M:1/4] G2 | %6
[M:3/4] Bd d2 e2 | dB G2 B2 | [CFA]3 [B,G] [DGB][CFA] |[M:2/4] [B,G]4 |[M:1/4] [DGB]2 | %11
[M:3/4] [DFA][Fd] [Fd]2 [FA]2 | Bd d2 B2 | Ad e2 ^c2 |[M:2/4] [Fd]4 |[M:1/4] G2 |[M:3/4] Bd d2 e2 | %17
 dB G2 B2 | [CFA]3 [B,G] [DGB][CFA] |[M:6/4] .[B,G]6 z6 |] %20
V:2
 z2 z2 [G,B,]2 | [G,DG][G,B,G] [G,B,G]2 [G,CG]2 | [G,B,G][G,G] [G,B,]2 [G,DG]2 | D,3 D, D,D, | %4
[M:2/4] [G,B,]4 |[M:1/4] [G,B,]2 |[M:3/4][K:treble] [G,DG][G,B,G] [G,B,G]2 [G,CG]2 | %7
 [G,B,G][G,G] [G,B,]2 [G,DG]2 | D,3 D, D,D, |[M:2/4] G,4 |[M:1/4] G,2 | %11
[M:3/4] D,[D,A,] [D,A,]2 [D,D]2 | [G,DG][G,B,G] [G,B,G]2 [G,DG]2 | %13
 [A,DF][A,F] [A,G]2[K:bass] [A,E]2 |[M:2/4] [D,A,]4 |[M:1/4] [G,B,]2 | %16
[M:3/4][K:treble] [G,DG][G,B,G] [G,B,G]2 [G,CG]2 | [G,B,G][G,G] [G,B,]2 [G,DG]2 | D,3 D, D,D, | %19
[M:6/4] .G,6 z6 |] %20

